X: 16
T: The Wind That Shakes The Barley
R: reel
M: 4/4
L: 1/8
K: Dmaj
A3A2 DFA|BAGA B2 dB|ADED A3g|fded BddB|
ADED ADED|BAGA B2dB|ADED A3g|fded Bdde|
f2ffg2fg|fedf e2de|fdfd a3a|afed Bdde|
f2ffg2fg|fedf e2de|fdfd a3a|afed BddB|


Tune 116	Setting 12718

